X:1
T:Erin Far Away
M:6/8
L:1/8
K:F
 F| A2 FD-F D| C2- A, C2 C| D2 F F2 E| F3 z2 c| c2 cd-c A| d2- c c2 c/2c/2|\
 c2 d A2 G| A3 z2 c/2c/2| c2 cd-c A| d2 c c2 c| c2 d A2 G| A3 z FF|\
 A2 FD-F D| C2 A, C2 C| D2 F F2 E| F3 z2||
